assets/img/icons/duotone-icons/Communication/Write.svg

<?xml version="1.0" encoding="UTF-8"?>
<svg width="24px" height="24px" viewBox="0 0 24 24" version="1.1" xmlns="http://www.w3.org/2000/svg" xmlns:xlink="http://www.w3.org/1999/xlink">
    <!-- Generator: Sketch 52.2 (67145) - http://www.bohemiancoding.com/sketch -->
    <title>Stockholm-icons / Communication / Write</title>
    <desc>Created with Sketch.</desc>
    <g id="Stockholm-icons-/-Communication-/-Write" stroke="none" stroke-width="1" fill="none" fill-rule="evenodd">
        <rect id="bound" x="0" y="0" width="24" height="24"></rect>
        <path d="M12.2674799,18.2323597 L12.0084872,5.45852451 C12.0004303,5.06114792 12.1504154,4.6768183 12.4255037,4.38993949 L15.0030167,1.70195304 L17.5910752,4.40093695 C17.8599071,4.6812911 18.0095067,5.05499603 18.0083938,5.44341307 L17.9718262,18.2062508 C17.9694575,19.0329966 17.2985816,19.701953 16.4718324,19.701953 L13.7671717,19.701953 C12.9505952,19.701953 12.2840328,19.0487684 12.2674799,18.2323597 Z" id="Path-11" fill="#335EEA" transform="translate(14.701953, 10.701953) rotate(-135.000000) translate(-14.701953, -10.701953) "></path>
        <path d="M12.9,2 C13.4522847,2 13.9,2.44771525 13.9,3 C13.9,3.55228475 13.4522847,4 12.9,4 L6,4 C4.8954305,4 4,4.8954305 4,6 L4,18 C4,19.1045695 4.8954305,20 6,20 L18,20 C19.1045695,20 20,19.1045695 20,18 L20,13 C20,12.4477153 20.4477153,12 21,12 C21.5522847,12 22,12.4477153 22,13 L22,18 C22,20.209139 20.209139,22 18,22 L6,22 C3.790861,22 2,20.209139 2,18 L2,6 C2,3.790861 3.790861,2 6,2 L12.9,2 Z" id="Path-57" fill="#335EEA" opacity="0.3"></path>
    </g>
</svg>

<svg width="24" height="24" viewBox="0 0 24 24" xmlns="http://www.w3.org/2000/svg"><g fill="none" fill-rule="evenodd"><path d="M0 0h24v24H0z"/><path d="M21.748 7.099l-8.85 9.215a1.5 1.5 0 01-1.05.46l-3.723.079.079-3.738a1.5 1.5 0 01.442-1.033l9.05-8.999a1.5 1.5 0 012.118.003L21.727 5a1.5 1.5 0 01.021 2.1z" fill="#335EEA"/><path d="M12.9 2a1 1 0 010 2H6a2 2 0 00-2 2v12a2 2 0 002 2h12a2 2 0 002-2v-5a1 1 0 012 0v5a4 4 0 01-4 4H6a4 4 0 01-4-4V6a4 4 0 014-4h6.9z" fill="#335EEA" opacity=".3"/></g></svg>
